;This Gcode was generated with GPyCode
;The shape has 6 vertices
;The print has a layer height of 0.2 mm and the feed speed is 40 mm/s
M140 S60
M104 S210
M105
M190 S60
M109 S210
M82
M201 X500.0 Y500.0 Z100.0 E5000.0
M203 X500.0 Y500.0 Z10.0 E50.0
M204 P500.0 R1000.0 T500.0
M205 X8.0 Y8.0 Z0.4 E5.0
M220 S100
M221 S100
G28
G92 E0
M107
G0 F12000 X110.0 Y110.0 Z2.00
G0 F12000 X122.282 Y110.0 Z0.2
G1 F2400 X116.141 Y120.637 E0.40851
G1 F2400 X103.859 Y120.637 E0.81702
G1 F2400 X97.718 Y110.0 E1.22553
G1 F2400 X103.859 Y99.363 E1.63404
G1 F2400 X116.141 Y99.363 E2.04255
G1 F2400 X122.282 Y110.0 E2.45106
M106 S128
G0 F12000 X122.273 Y110.465 Z0.4
G1 F2400 X115.734 Y120.862 E2.85957
G1 F2400 X103.461 Y120.397 E3.26808
G1 F2400 X97.727 Y109.535 E3.67659
G1 F2400 X104.266 Y99.138 E4.0851
G1 F2400 X116.539 Y99.603 E4.49361
G1 F2400 X122.273 Y110.465 E4.90212
M106 S255
G0 F12000 X122.247 Y110.929 Z0.6
G1 F2400 X115.319 Y121.071 E5.31063
G1 F2400 X103.072 Y120.142 E5.71914
G1 F2400 X97.753 Y109.071 E6.12766
G1 F2400 X104.681 Y98.929 E6.53617
G1 F2400 X116.928 Y99.858 E6.94468
G1 F2400 X122.247 Y110.929 E7.35319
G0 F12000 X122.203 Y111.392 Z0.8
G1 F2400 X114.896 Y121.264 E7.7617
G1 F2400 X102.693 Y119.872 E8.17021
G1 F2400 X97.797 Y108.608 E8.57872
G1 F2400 X105.104 Y98.736 E8.98723
G1 F2400 X117.307 Y100.128 E9.39574
G1 F2400 X122.203 Y111.392 E9.80425
G0 F12000 X122.142 Y111.852 Z1.0
G1 F2400 X114.467 Y121.441 E10.21276
G1 F2400 X102.325 Y119.589 E10.62127
G1 F2400 X97.858 Y108.148 E11.02978
G1 F2400 X105.533 Y98.559 E11.43829
G1 F2400 X117.675 Y100.411 E11.8468
G1 F2400 X122.142 Y111.852 E12.25531
G0 F12000 X122.063 Y112.311 Z1.2
G1 F2400 X114.03 Y121.602 E12.66382
G1 F2400 X101.967 Y119.292 E13.07233
G1 F2400 X97.937 Y107.689 E13.48084
G1 F2400 X105.97 Y98.398 E13.88935
G1 F2400 X118.033 Y100.708 E14.29786
G1 F2400 X122.063 Y112.311 E14.70637
G0 F12000 X121.967 Y112.765 Z1.4
G1 F2400 X113.589 Y121.746 E15.11488
G1 F2400 X101.622 Y118.981 E15.52339
G1 F2400 X98.033 Y107.235 E15.9319
G1 F2400 X106.411 Y98.254 E16.34041
G1 F2400 X118.378 Y101.019 E16.74892
G1 F2400 X121.967 Y112.765 E17.15743
G0 F12000 X121.854 Y113.216 Z1.6
G1 F2400 X113.141 Y121.874 E17.56594
G1 F2400 X101.288 Y118.657 E17.97446
G1 F2400 X98.146 Y106.784 E18.38297
G1 F2400 X106.859 Y98.126 E18.79148
G1 F2400 X118.712 Y101.343 E19.19999
G1 F2400 X121.854 Y113.216 E19.6085
G0 F12000 X121.723 Y113.663 Z1.8
G1 F2400 X112.69 Y121.984 E20.01701
G1 F2400 X100.966 Y118.322 E20.42552
G1 F2400 X98.277 Y106.337 E20.83403
G1 F2400 X107.31 Y98.016 E21.24254
G1 F2400 X119.034 Y101.678 E21.65105
G1 F2400 X121.723 Y113.663 E22.05956
G0 F12000 X121.576 Y114.104 Z2.0
G1 F2400 X112.234 Y122.077 E22.46807
G1 F2400 X100.658 Y117.974 E22.87658
G1 F2400 X98.424 Y105.896 E23.28509
G1 F2400 X107.766 Y97.923 E23.6936
G1 F2400 X119.342 Y102.026 E24.10211
G1 F2400 X121.576 Y114.104 E24.51062
G0 F12000 X121.413 Y114.539 Z2.2
G1 F2400 X111.776 Y122.153 E24.91913
G1 F2400 X100.363 Y117.615 E25.32764
G1 F2400 X98.587 Y105.461 E25.73615
G1 F2400 X108.224 Y97.847 E26.14466
G1 F2400 X119.637 Y102.385 E26.55317
G1 F2400 X121.413 Y114.539 E26.96168
G0 F12000 X121.233 Y114.967 Z2.4
G1 F2400 X111.315 Y122.212 E27.37019
G1 F2400 X100.082 Y117.244 E27.7787
G1 F2400 X98.767 Y105.033 E28.18721
G1 F2400 X108.685 Y97.788 E28.59572
G1 F2400 X119.918 Y102.756 E29.00423
G1 F2400 X121.233 Y114.967 E29.41274
G0 F12000 X121.037 Y115.389 Z2.6
G1 F2400 X110.852 Y122.253 E29.82126
G1 F2400 X99.815 Y116.864 E30.22977
G1 F2400 X98.963 Y104.611 E30.63828
G1 F2400 X109.148 Y97.747 E31.04679
G1 F2400 X120.185 Y103.136 E31.4553
G1 F2400 X121.037 Y115.389 E31.86381
G0 F12000 X120.825 Y115.803 Z2.8
G1 F2400 X110.387 Y122.276 E32.27232
G1 F2400 X99.562 Y116.474 E32.68083
G1 F2400 X99.175 Y104.197 E33.08934
G1 F2400 X109.613 Y97.724 E33.49785
G1 F2400 X120.438 Y103.526 E33.90636
G1 F2400 X120.825 Y115.803 E34.31487
G0 F12000 X120.598 Y116.208 Z3.0
G1 F2400 X109.923 Y122.282 E34.72338
G1 F2400 X99.325 Y116.074 E35.13189
G1 F2400 X99.402 Y103.792 E35.5404
G1 F2400 X110.077 Y97.718 E35.94891
G1 F2400 X120.675 Y103.926 E36.35742
G1 F2400 X120.598 Y116.208 E36.76593
G0 F12000 X120.355 Y116.605 Z3.2
G1 F2400 X109.458 Y122.27 E37.17444
G1 F2400 X99.103 Y115.666 E37.58295
G1 F2400 X99.645 Y103.395 E37.99146
G1 F2400 X110.542 Y97.73 E38.39997
G1 F2400 X120.897 Y104.334 E38.80848
G1 F2400 X120.355 Y116.605 E39.21699
G0 F12000 X120.098 Y116.992 Z3.4
G1 F2400 X108.994 Y122.241 E39.6255
G1 F2400 X98.896 Y115.249 E40.03401
G1 F2400 X99.902 Y103.008 E40.44252
G1 F2400 X111.006 Y97.759 E40.85103
G1 F2400 X121.104 Y104.751 E41.25955
G1 F2400 X120.098 Y116.992 E41.66806
G0 F12000 X119.826 Y117.369 Z3.6
G1 F2400 X108.531 Y122.194 E42.07657
G1 F2400 X98.705 Y114.825 E42.48508
G1 F2400 X100.174 Y102.631 E42.89359
G1 F2400 X111.469 Y97.806 E43.3021
G1 F2400 X121.295 Y105.175 E43.71061
G1 F2400 X119.826 Y117.369 E44.11912
G0 F12000 X119.54 Y117.736 Z3.8
G1 F2400 X108.071 Y122.13 E44.52763
G1 F2400 X98.531 Y114.394 E44.93614
G1 F2400 X100.46 Y102.264 E45.34465
G1 F2400 X111.929 Y97.87 E45.75316
G1 F2400 X121.469 Y105.606 E46.16167
G1 F2400 X119.54 Y117.736 E46.57018
G0 F12000 X119.241 Y118.091 Z4.0
G1 F2400 X107.613 Y122.048 E46.97869
G1 F2400 X98.373 Y113.957 E47.3872
G1 F2400 X100.759 Y101.909 E47.79571
G1 F2400 X112.387 Y97.952 E48.20422
G1 F2400 X121.627 Y106.043 E48.61273
G1 F2400 X119.241 Y118.091 E49.02124
G0 F12000 X118.928 Y118.435 Z4.2
G1 F2400 X107.159 Y121.949 E49.42975
G1 F2400 X98.231 Y113.514 E49.83826
G1 F2400 X101.072 Y101.565 E50.24677
G1 F2400 X112.841 Y98.051 E50.65528
G1 F2400 X121.769 Y106.486 E51.06379
G1 F2400 X118.928 Y118.435 E51.4723
G0 F12000 X118.602 Y118.767 Z4.4
G1 F2400 X106.709 Y121.833 E51.88081
G1 F2400 X98.107 Y113.066 E52.28932
G1 F2400 X101.398 Y101.233 E52.69783
G1 F2400 X113.291 Y98.167 E53.10635
G1 F2400 X121.893 Y106.934 E53.51486
G1 F2400 X118.602 Y118.767 E53.92337
G0 F12000 X118.264 Y119.086 Z4.6
G1 F2400 X106.264 Y121.7 E54.33188
G1 F2400 X97.999 Y112.614 E54.74039
G1 F2400 X101.736 Y100.914 E55.1489
G1 F2400 X113.736 Y98.3 E55.55741
G1 F2400 X122.001 Y107.386 E55.96592
G1 F2400 X118.264 Y119.086 E56.37443
G0 F12000 X117.915 Y119.392 Z4.8
G1 F2400 X105.823 Y121.55 E56.78294
G1 F2400 X97.909 Y112.158 E57.19145
G1 F2400 X102.085 Y100.608 E57.59996
G1 F2400 X114.177 Y98.45 E58.00847
G1 F2400 X122.091 Y107.842 E58.41698
G1 F2400 X117.915 Y119.392 E58.82549
G0 F12000 X117.554 Y119.685 Z5.0
G1 F2400 X105.389 Y121.384 E59.234
G1 F2400 X97.836 Y111.699 E59.64251
G1 F2400 X102.446 Y100.315 E60.05102
G1 F2400 X114.611 Y98.616 E60.45953
G1 F2400 X122.164 Y108.301 E60.86804
G1 F2400 X117.554 Y119.685 E61.27655
G0 F12000 X117.182 Y119.964 Z5.2
G1 F2400 X104.962 Y121.201 E61.68506
G1 F2400 X97.78 Y111.238 E62.09357
G1 F2400 X102.818 Y100.036 E62.50208
G1 F2400 X115.038 Y98.799 E62.91059
G1 F2400 X122.22 Y108.762 E63.3191
G1 F2400 X117.182 Y119.964 E63.72761
G0 F12000 X116.799 Y120.228 Z5.4
G1 F2400 X104.542 Y121.003 E64.13612
G1 F2400 X97.742 Y110.774 E64.54463
G1 F2400 X103.201 Y99.772 E64.95315
G1 F2400 X115.458 Y98.997 E65.36166
G1 F2400 X122.258 Y109.226 E65.77017
G1 F2400 X116.799 Y120.228 E66.17868
G0 F12000 X116.408 Y120.478 Z5.6
G1 F2400 X104.129 Y120.788 E66.58719
G1 F2400 X97.722 Y110.31 E66.9957
G1 F2400 X103.592 Y99.522 E67.40421
G1 F2400 X115.871 Y99.212 E67.81272
G1 F2400 X122.278 Y109.69 E68.22123
G1 F2400 X116.408 Y120.478 E68.62974
G0 F12000 X116.006 Y120.713 Z5.8
G1 F2400 X103.725 Y120.558 E69.03825
G1 F2400 X97.719 Y109.845 E69.44676
G1 F2400 X103.994 Y99.287 E69.85527
G1 F2400 X116.275 Y99.442 E70.26378
G1 F2400 X122.281 Y110.155 E70.67229
G1 F2400 X116.006 Y120.713 E71.0808
G0 F12000 X115.597 Y120.933 Z6.0
G1 F2400 X103.33 Y120.313 E71.48931
G1 F2400 X97.733 Y109.38 E71.89782
G1 F2400 X104.403 Y99.067 E72.30633
G1 F2400 X116.67 Y99.687 E72.71484
G1 F2400 X122.267 Y110.62 E73.12335
G1 F2400 X115.597 Y120.933 E73.53186
G0 F12000 X115.179 Y121.137 Z6.2
G1 F2400 X102.945 Y120.054 E73.94037
G1 F2400 X97.766 Y108.917 E74.34888
G1 F2400 X104.821 Y98.863 E74.75739
G1 F2400 X117.055 Y99.946 E75.1659
G1 F2400 X122.234 Y111.083 E75.57441
G1 F2400 X115.179 Y121.137 E75.98292
G0 F12000 X114.754 Y121.325 Z6.4
G1 F2400 X102.569 Y119.779 E76.39143
G1 F2400 X97.815 Y108.454 E76.79995
G1 F2400 X105.246 Y98.675 E77.20846
G1 F2400 X117.431 Y100.221 E77.61697
G1 F2400 X122.185 Y111.546 E78.02548
G1 F2400 X114.754 Y121.325 E78.43399
G0 F12000 X114.322 Y121.497 Z6.6
G1 F2400 X102.204 Y119.491 E78.8425
G1 F2400 X97.883 Y107.994 E79.25101
G1 F2400 X105.678 Y98.503 E79.65952
G1 F2400 X117.796 Y100.509 E80.06803
G1 F2400 X122.117 Y112.006 E80.47654
G1 F2400 X114.322 Y121.497 E80.88505
G0 F12000 X113.884 Y121.652 Z6.8
G1 F2400 X101.851 Y119.189 E81.29356
G1 F2400 X97.967 Y107.537 E81.70207
G1 F2400 X106.116 Y98.348 E82.11058
G1 F2400 X118.149 Y100.811 E82.51909
G1 F2400 X122.033 Y112.463 E82.9276
G1 F2400 X113.884 Y121.652 E83.33611
G0 F12000 X113.44 Y121.791 Z7.0
G1 F2400 X101.509 Y118.875 E83.74462
G1 F2400 X98.069 Y107.084 E84.15313
G1 F2400 X106.56 Y98.209 E84.56164
G1 F2400 X118.491 Y101.125 E84.97015
G1 F2400 X121.931 Y112.916 E85.37866
G1 F2400 X113.44 Y121.791 E85.78717
G0 F12000 X112.991 Y121.912 Z7.2
G1 F2400 X101.179 Y118.547 E86.19568
G1 F2400 X98.188 Y106.634 E86.60419
G1 F2400 X107.009 Y98.088 E87.0127
G1 F2400 X118.821 Y101.453 E87.42121
G1 F2400 X121.812 Y113.366 E87.82972
G1 F2400 X112.991 Y121.912 E88.23823
G0 F12000 X112.538 Y122.017 Z7.4
G1 F2400 X100.862 Y118.207 E88.64675
G1 F2400 X98.324 Y106.19 E89.05526
G1 F2400 X107.462 Y97.983 E89.46377
G1 F2400 X119.138 Y101.793 E89.87228
G1 F2400 X121.676 Y113.81 E90.28079
G1 F2400 X112.538 Y122.017 E90.6893
G0 F12000 X112.082 Y122.105 Z7.6
G1 F2400 X100.558 Y117.855 E91.09781
G1 F2400 X98.476 Y105.751 E91.50632
G1 F2400 X107.918 Y97.895 E91.91483
G1 F2400 X119.442 Y102.145 E92.32334
G1 F2400 X121.524 Y114.249 E92.73185
G1 F2400 X112.082 Y122.105 E93.14036
G0 F12000 X111.622 Y122.175 Z7.8
G1 F2400 X100.268 Y117.492 E93.54887
G1 F2400 X98.645 Y105.318 E93.95738
G1 F2400 X108.378 Y97.825 E94.36589
G1 F2400 X119.732 Y102.508 E94.7744
G1 F2400 X121.355 Y114.682 E95.18291
G1 F2400 X111.622 Y122.175 E95.59142
G0 F12000 X111.16 Y122.227 Z8.0
G1 F2400 X99.991 Y117.119 E95.99993
G1 F2400 X98.831 Y104.891 E96.40844
G1 F2400 X108.84 Y97.773 E96.81695
G1 F2400 X120.009 Y102.881 E97.22546
G1 F2400 X121.169 Y115.109 E97.63397
G1 F2400 X111.16 Y122.227 E98.04248
G0 F12000 X110.697 Y122.262 Z8.2
G1 F2400 X99.729 Y116.735 E98.45099
G1 F2400 X99.032 Y104.472 E98.8595
G1 F2400 X109.303 Y97.738 E99.26801
G1 F2400 X120.271 Y103.265 E99.67652
G1 F2400 X120.968 Y115.528 E100.08503
G1 F2400 X110.697 Y122.262 E100.49355
G0 F12000 X110.232 Y122.28 Z8.4
G1 F2400 X99.481 Y116.341 E100.90206
G1 F2400 X99.249 Y104.061 E101.31057
G1 F2400 X109.768 Y97.72 E101.71908
G1 F2400 X120.519 Y103.659 E102.12759
G1 F2400 X120.751 Y115.939 E102.5361
G1 F2400 X110.232 Y122.28 E102.94461
G0 F12000 X109.768 Y122.28 Z8.6
G1 F2400 X99.249 Y115.939 E103.35312
G1 F2400 X99.481 Y103.659 E103.76163
G1 F2400 X110.232 Y97.72 E104.17014
G1 F2400 X120.751 Y104.061 E104.57865
G1 F2400 X120.519 Y116.341 E104.98716
G1 F2400 X109.768 Y122.28 E105.39567
G0 F12000 X109.303 Y122.262 Z8.8
G1 F2400 X99.032 Y115.528 E105.80418
G1 F2400 X99.729 Y103.265 E106.21269
G1 F2400 X110.697 Y97.738 E106.6212
G1 F2400 X120.968 Y104.472 E107.02971
G1 F2400 X120.271 Y116.735 E107.43822
G1 F2400 X109.303 Y122.262 E107.84673
G0 F12000 X108.84 Y122.227 Z9.0
G1 F2400 X98.831 Y115.109 E108.25524
G1 F2400 X99.991 Y102.881 E108.66375
G1 F2400 X111.16 Y97.773 E109.07226
G1 F2400 X121.169 Y104.891 E109.48077
G1 F2400 X120.009 Y117.119 E109.88928
G1 F2400 X108.84 Y122.227 E110.29779
G0 F12000 X108.378 Y122.175 Z9.2
G1 F2400 X98.645 Y114.682 E110.7063
G1 F2400 X100.268 Y102.508 E111.11481
G1 F2400 X111.622 Y97.825 E111.52332
G1 F2400 X121.355 Y105.318 E111.93183
G1 F2400 X119.732 Y117.492 E112.34035
G1 F2400 X108.378 Y122.175 E112.74886
G0 F12000 X107.918 Y122.105 Z9.4
G1 F2400 X98.476 Y114.249 E113.15737
G1 F2400 X100.558 Y102.145 E113.56588
G1 F2400 X112.082 Y97.895 E113.97439
G1 F2400 X121.524 Y105.751 E114.3829
G1 F2400 X119.442 Y117.855 E114.79141
G1 F2400 X107.918 Y122.105 E115.19992
G0 F12000 X107.462 Y122.017 Z9.6
G1 F2400 X98.324 Y113.81 E115.60843
G1 F2400 X100.862 Y101.793 E116.01694
G1 F2400 X112.538 Y97.983 E116.42545
G1 F2400 X121.676 Y106.19 E116.83396
G1 F2400 X119.138 Y118.207 E117.24247
G1 F2400 X107.462 Y122.017 E117.65098
G0 F12000 X107.009 Y121.912 Z9.8
G1 F2400 X98.188 Y113.366 E118.05949
G1 F2400 X101.179 Y101.453 E118.468
G1 F2400 X112.991 Y98.088 E118.87651
G1 F2400 X121.812 Y106.634 E119.28502
G1 F2400 X118.821 Y118.547 E119.69353
G1 F2400 X107.009 Y121.912 E120.10204
G0 F12000 X106.56 Y121.791 Z10.0
G1 F2400 X98.069 Y112.916 E120.51055
G1 F2400 X101.509 Y101.125 E120.91906
G1 F2400 X113.44 Y98.209 E121.32757
G1 F2400 X121.931 Y107.084 E121.73608
G1 F2400 X118.491 Y118.875 E122.14459
G1 F2400 X106.56 Y121.791 E122.5531
G0 F12000 X106.116 Y121.652 Z10.2
G1 F2400 X97.967 Y112.463 E122.96161
G1 F2400 X101.851 Y100.811 E123.37012
G1 F2400 X113.884 Y98.348 E123.77864
G1 F2400 X122.033 Y107.537 E124.18715
G1 F2400 X118.149 Y119.189 E124.59566
G1 F2400 X106.116 Y121.652 E125.00417
G0 F12000 X105.678 Y121.497 Z10.4
G1 F2400 X97.883 Y112.006 E125.41268
G1 F2400 X102.204 Y100.509 E125.82119
G1 F2400 X114.322 Y98.503 E126.2297
G1 F2400 X122.117 Y107.994 E126.63821
G1 F2400 X117.796 Y119.491 E127.04672
G1 F2400 X105.678 Y121.497 E127.45523
G0 F12000 X105.246 Y121.325 Z10.6
G1 F2400 X97.815 Y111.546 E127.86374
G1 F2400 X102.569 Y100.221 E128.27225
G1 F2400 X114.754 Y98.675 E128.68076
G1 F2400 X122.185 Y108.454 E129.08927
G1 F2400 X117.431 Y119.779 E129.49778
G1 F2400 X105.246 Y121.325 E129.90629
G0 F12000 X104.821 Y121.137 Z10.8
G1 F2400 X97.766 Y111.083 E130.3148
G1 F2400 X102.945 Y99.946 E130.72331
G1 F2400 X115.179 Y98.863 E131.13182
G1 F2400 X122.234 Y108.917 E131.54033
G1 F2400 X117.055 Y120.054 E131.94884
G1 F2400 X104.821 Y121.137 E132.35735
G0 F12000 X104.403 Y120.933 Z11.0
G1 F2400 X97.733 Y110.62 E132.76586
G1 F2400 X103.33 Y99.687 E133.17437
G1 F2400 X115.597 Y99.067 E133.58288
G1 F2400 X122.267 Y109.38 E133.99139
G1 F2400 X116.67 Y120.313 E134.3999
G1 F2400 X104.403 Y120.933 E134.80841
G0 F12000 X103.994 Y120.713 Z11.2
G1 F2400 X97.719 Y110.155 E135.21692
G1 F2400 X103.725 Y99.442 E135.62544
G1 F2400 X116.006 Y99.287 E136.03395
G1 F2400 X122.281 Y109.845 E136.44246
G1 F2400 X116.275 Y120.558 E136.85097
G1 F2400 X103.994 Y120.713 E137.25948
G0 F12000 X103.592 Y120.478 Z11.4
G1 F2400 X97.722 Y109.69 E137.66799
G1 F2400 X104.129 Y99.212 E138.0765
G1 F2400 X116.408 Y99.522 E138.48501
G1 F2400 X122.278 Y110.31 E138.89352
G1 F2400 X115.871 Y120.788 E139.30203
G1 F2400 X103.592 Y120.478 E139.71054
G0 F12000 X103.201 Y120.228 Z11.6
G1 F2400 X97.742 Y109.226 E140.11905
G1 F2400 X104.542 Y98.997 E140.52756
G1 F2400 X116.799 Y99.772 E140.93607
G1 F2400 X122.258 Y110.774 E141.34458
G1 F2400 X115.458 Y121.003 E141.75309
G1 F2400 X103.201 Y120.228 E142.1616
G0 F12000 X102.818 Y119.964 Z11.8
G1 F2400 X97.78 Y108.762 E142.57011
G1 F2400 X104.962 Y98.799 E142.97862
G1 F2400 X117.182 Y100.036 E143.38713
G1 F2400 X122.22 Y111.238 E143.79564
G1 F2400 X115.038 Y121.201 E144.20415
G1 F2400 X102.818 Y119.964 E144.61266
G0 F12000 X102.446 Y119.685 Z12.0
G1 F2400 X97.836 Y108.301 E145.02117
G1 F2400 X105.389 Y98.616 E145.42968
G1 F2400 X117.554 Y100.315 E145.83819
G1 F2400 X122.164 Y111.699 E146.2467
G1 F2400 X114.611 Y121.384 E146.65521
G1 F2400 X102.446 Y119.685 E147.06372
G0 F12000 X102.085 Y119.392 Z12.2
G1 F2400 X97.909 Y107.842 E147.47224
G1 F2400 X105.823 Y98.45 E147.88075
G1 F2400 X117.915 Y100.608 E148.28926
G1 F2400 X122.091 Y112.158 E148.69777
G1 F2400 X114.177 Y121.55 E149.10628
G1 F2400 X102.085 Y119.392 E149.51479
G0 F12000 X101.736 Y119.086 Z12.4
G1 F2400 X97.999 Y107.386 E149.9233
G1 F2400 X106.264 Y98.3 E150.33181
G1 F2400 X118.264 Y100.914 E150.74032
G1 F2400 X122.001 Y112.614 E151.14883
G1 F2400 X113.736 Y121.7 E151.55734
G1 F2400 X101.736 Y119.086 E151.96585
G0 F12000 X101.398 Y118.767 Z12.6
G1 F2400 X98.107 Y106.934 E152.37436
G1 F2400 X106.709 Y98.167 E152.78287
G1 F2400 X118.602 Y101.233 E153.19138
G1 F2400 X121.893 Y113.066 E153.59989
G1 F2400 X113.291 Y121.833 E154.0084
G1 F2400 X101.398 Y118.767 E154.41691
G0 F12000 X101.072 Y118.435 Z12.8
G1 F2400 X98.231 Y106.486 E154.82542
G1 F2400 X107.159 Y98.051 E155.23393
G1 F2400 X118.928 Y101.565 E155.64244
G1 F2400 X121.769 Y113.514 E156.05095
G1 F2400 X112.841 Y121.949 E156.45946
G1 F2400 X101.072 Y118.435 E156.86797
G0 F12000 X100.759 Y118.091 Z13.0
G1 F2400 X98.373 Y106.043 E157.27648
G1 F2400 X107.613 Y97.952 E157.68499
G1 F2400 X119.241 Y101.909 E158.0935
G1 F2400 X121.627 Y113.957 E158.50201
G1 F2400 X112.387 Y122.048 E158.91052
G1 F2400 X100.759 Y118.091 E159.31904
G0 F12000 X100.46 Y117.736 Z13.2
G1 F2400 X98.531 Y105.606 E159.72755
G1 F2400 X108.071 Y97.87 E160.13606
G1 F2400 X119.54 Y102.264 E160.54457
G1 F2400 X121.469 Y114.394 E160.95308
G1 F2400 X111.929 Y122.13 E161.36159
G1 F2400 X100.46 Y117.736 E161.7701
G0 F12000 X100.174 Y117.369 Z13.4
G1 F2400 X98.705 Y105.175 E162.17861
G1 F2400 X108.531 Y97.806 E162.58712
G1 F2400 X119.826 Y102.631 E162.99563
G1 F2400 X121.295 Y114.825 E163.40414
G1 F2400 X111.469 Y122.194 E163.81265
G1 F2400 X100.174 Y117.369 E164.22116
G0 F12000 X99.902 Y116.992 Z13.6
G1 F2400 X98.896 Y104.751 E164.62967
G1 F2400 X108.994 Y97.759 E165.03818
G1 F2400 X120.098 Y103.008 E165.44669
G1 F2400 X121.104 Y115.249 E165.8552
G1 F2400 X111.006 Y122.241 E166.26371
G1 F2400 X99.902 Y116.992 E166.67222
G0 F12000 X99.645 Y116.605 Z13.8
G1 F2400 X99.103 Y104.334 E167.08073
G1 F2400 X109.458 Y97.73 E167.48924
G1 F2400 X120.355 Y103.395 E167.89775
G1 F2400 X120.897 Y115.666 E168.30626
G1 F2400 X110.542 Y122.27 E168.71477
G1 F2400 X99.645 Y116.605 E169.12328
G0 F12000 X99.402 Y116.208 Z14.0
G1 F2400 X99.325 Y103.926 E169.53179
G1 F2400 X109.923 Y97.718 E169.9403
G1 F2400 X120.598 Y103.792 E170.34881
G1 F2400 X120.675 Y116.074 E170.75732
G1 F2400 X110.077 Y122.282 E171.16584
G1 F2400 X99.402 Y116.208 E171.57435
G0 F12000 X99.175 Y115.803 Z14.2
G1 F2400 X99.562 Y103.526 E171.98286
G1 F2400 X110.387 Y97.724 E172.39137
G1 F2400 X120.825 Y104.197 E172.79988
G1 F2400 X120.438 Y116.474 E173.20839
G1 F2400 X109.613 Y122.276 E173.6169
G1 F2400 X99.175 Y115.803 E174.02541
G0 F12000 X98.963 Y115.389 Z14.4
G1 F2400 X99.815 Y103.136 E174.43392
G1 F2400 X110.852 Y97.747 E174.84243
G1 F2400 X121.037 Y104.611 E175.25094
G1 F2400 X120.185 Y116.864 E175.65945
G1 F2400 X109.148 Y122.253 E176.06796
G1 F2400 X98.963 Y115.389 E176.47647
G0 F12000 X98.767 Y114.967 Z14.6
G1 F2400 X100.082 Y102.756 E176.88498
G1 F2400 X111.315 Y97.788 E177.29349
G1 F2400 X121.233 Y105.033 E177.702
G1 F2400 X119.918 Y117.244 E178.11051
G1 F2400 X108.685 Y122.212 E178.51902
G1 F2400 X98.767 Y114.967 E178.92753
G0 F12000 X98.587 Y114.539 Z14.8
G1 F2400 X100.363 Y102.385 E179.33604
G1 F2400 X111.776 Y97.847 E179.74455
G1 F2400 X121.413 Y105.461 E180.15306
G1 F2400 X119.637 Y117.615 E180.56157
G1 F2400 X108.224 Y122.153 E180.97008
G1 F2400 X98.587 Y114.539 E181.37859
G0 F12000 X98.424 Y114.104 Z15.0
G1 F2400 X100.658 Y102.026 E181.7871
G1 F2400 X112.234 Y97.923 E182.19561
G1 F2400 X121.576 Y105.896 E182.60412
G1 F2400 X119.342 Y117.974 E183.01264
G1 F2400 X107.766 Y122.077 E183.42115
G1 F2400 X98.424 Y114.104 E183.82966
G0 F12000 X98.277 Y113.663 Z15.2
G1 F2400 X100.966 Y101.678 E184.23817
G1 F2400 X112.69 Y98.016 E184.64668
G1 F2400 X121.723 Y106.337 E185.05519
G1 F2400 X119.034 Y118.322 E185.4637
G1 F2400 X107.31 Y121.984 E185.87221
G1 F2400 X98.277 Y113.663 E186.28072
G0 F12000 X98.146 Y113.216 Z15.4
G1 F2400 X101.288 Y101.343 E186.68923
G1 F2400 X113.141 Y98.126 E187.09774
G1 F2400 X121.854 Y106.784 E187.50625
G1 F2400 X118.712 Y118.657 E187.91476
G1 F2400 X106.859 Y121.874 E188.32327
G1 F2400 X98.146 Y113.216 E188.73178
G0 F12000 X98.033 Y112.765 Z15.6
G1 F2400 X101.622 Y101.019 E189.14029
G1 F2400 X113.589 Y98.254 E189.5488
G1 F2400 X121.967 Y107.235 E189.95731
G1 F2400 X118.378 Y118.981 E190.36582
G1 F2400 X106.411 Y121.746 E190.77433
G1 F2400 X98.033 Y112.765 E191.18284
G0 F12000 X97.937 Y112.311 Z15.8
G1 F2400 X101.967 Y100.708 E191.59135
G1 F2400 X114.03 Y98.398 E191.99986
G1 F2400 X122.063 Y107.689 E192.40837
G1 F2400 X118.033 Y119.292 E192.81688
G1 F2400 X105.97 Y121.602 E193.22539
G1 F2400 X97.937 Y112.311 E193.6339
G0 F12000 X97.858 Y111.852 Z16.0
G1 F2400 X102.325 Y100.411 E194.04241
G1 F2400 X114.467 Y98.559 E194.45092
G1 F2400 X122.142 Y108.148 E194.85944
G1 F2400 X117.675 Y119.589 E195.26795
G1 F2400 X105.533 Y121.441 E195.67646
G1 F2400 X97.858 Y111.852 E196.08497
G0 F12000 X97.797 Y111.392 Z16.2
G1 F2400 X102.693 Y100.128 E196.49348
G1 F2400 X114.896 Y98.736 E196.90199
G1 F2400 X122.203 Y108.608 E197.3105
G1 F2400 X117.307 Y119.872 E197.71901
G1 F2400 X105.104 Y121.264 E198.12752
G1 F2400 X97.797 Y111.392 E198.53603
G0 F12000 X97.753 Y110.929 Z16.4
G1 F2400 X103.072 Y99.858 E198.94454
G1 F2400 X115.319 Y98.929 E199.35305
G1 F2400 X122.247 Y109.071 E199.76156
G1 F2400 X116.928 Y120.142 E200.17007
G1 F2400 X104.681 Y121.071 E200.57858
G1 F2400 X97.753 Y110.929 E200.98709
G0 F12000 X97.727 Y110.465 Z16.6
G1 F2400 X103.461 Y99.603 E201.3956
G1 F2400 X115.734 Y99.138 E201.80411
G1 F2400 X122.273 Y109.535 E202.21262
G1 F2400 X116.539 Y120.397 E202.62113
G1 F2400 X104.266 Y120.862 E203.02964
G1 F2400 X97.727 Y110.465 E203.43815
G0 F12000 X97.718 Y110.0 Z16.8
G1 F2400 X103.859 Y99.363 E203.84666
G1 F2400 X116.141 Y99.363 E204.25517
G1 F2400 X122.282 Y110.0 E204.66368
G1 F2400 X116.141 Y120.637 E205.07219
G1 F2400 X103.859 Y120.637 E205.4807
G1 F2400 X97.718 Y110.0 E205.88921
G0 F12000 X97.727 Y109.535 Z17.0
G1 F2400 X104.266 Y99.138 E206.29773
G1 F2400 X116.539 Y99.603 E206.70624
G1 F2400 X122.273 Y110.465 E207.11475
G1 F2400 X115.734 Y120.862 E207.52326
G1 F2400 X103.461 Y120.397 E207.93177
G1 F2400 X97.727 Y109.535 E208.34028
G0 F12000 X97.753 Y109.071 Z17.2
G1 F2400 X104.681 Y98.929 E208.74879
G1 F2400 X116.928 Y99.858 E209.1573
G1 F2400 X122.247 Y110.929 E209.56581
G1 F2400 X115.319 Y121.071 E209.97432
G1 F2400 X103.072 Y120.142 E210.38283
G1 F2400 X97.753 Y109.071 E210.79134
G0 F12000 X97.797 Y108.608 Z17.4
G1 F2400 X105.104 Y98.736 E211.19985
G1 F2400 X117.307 Y100.128 E211.60836
G1 F2400 X122.203 Y111.392 E212.01687
G1 F2400 X114.896 Y121.264 E212.42538
G1 F2400 X102.693 Y119.872 E212.83389
G1 F2400 X97.797 Y108.608 E213.2424
G0 F12000 X97.858 Y108.148 Z17.6
G1 F2400 X105.533 Y98.559 E213.65091
G1 F2400 X117.675 Y100.411 E214.05942
G1 F2400 X122.142 Y111.852 E214.46793
G1 F2400 X114.467 Y121.441 E214.87644
G1 F2400 X102.325 Y119.589 E215.28495
G1 F2400 X97.858 Y108.148 E215.69346
G0 F12000 X97.937 Y107.689 Z17.8
G1 F2400 X105.97 Y98.398 E216.10197
G1 F2400 X118.033 Y100.708 E216.51048
G1 F2400 X122.063 Y112.311 E216.91899
G1 F2400 X114.03 Y121.602 E217.3275
G1 F2400 X101.967 Y119.292 E217.73601
G1 F2400 X97.937 Y107.689 E218.14453
G0 F12000 X98.033 Y107.235 Z18.0
G1 F2400 X106.411 Y98.254 E218.55304
G1 F2400 X118.378 Y101.019 E218.96155
G1 F2400 X121.967 Y112.765 E219.37006
G1 F2400 X113.589 Y121.746 E219.77857
G1 F2400 X101.622 Y118.981 E220.18708
G1 F2400 X98.033 Y107.235 E220.59559
G0 F12000 X98.146 Y106.784 Z18.2
G1 F2400 X106.859 Y98.126 E221.0041
G1 F2400 X118.712 Y101.343 E221.41261
G1 F2400 X121.854 Y113.216 E221.82112
G1 F2400 X113.141 Y121.874 E222.22963
G1 F2400 X101.288 Y118.657 E222.63814
G1 F2400 X98.146 Y106.784 E223.04665
G0 F12000 X98.277 Y106.337 Z18.4
G1 F2400 X107.31 Y98.016 E223.45516
G1 F2400 X119.034 Y101.678 E223.86367
G1 F2400 X121.723 Y113.663 E224.27218
G1 F2400 X112.69 Y121.984 E224.68069
G1 F2400 X100.966 Y118.322 E225.0892
G1 F2400 X98.277 Y106.337 E225.49771
G0 F12000 X98.424 Y105.896 Z18.6
G1 F2400 X107.766 Y97.923 E225.90622
G1 F2400 X119.342 Y102.026 E226.31473
G1 F2400 X121.576 Y114.104 E226.72324
G1 F2400 X112.234 Y122.077 E227.13175
G1 F2400 X100.658 Y117.974 E227.54026
G1 F2400 X98.424 Y105.896 E227.94877
G0 F12000 X98.587 Y105.461 Z18.8
G1 F2400 X108.224 Y97.847 E228.35728
G1 F2400 X119.637 Y102.385 E228.76579
G1 F2400 X121.413 Y114.539 E229.1743
G1 F2400 X111.776 Y122.153 E229.58281
G1 F2400 X100.363 Y117.615 E229.99133
G1 F2400 X98.587 Y105.461 E230.39984
G0 F12000 X98.767 Y105.033 Z19.0
G1 F2400 X108.685 Y97.788 E230.80835
G1 F2400 X119.918 Y102.756 E231.21686
G1 F2400 X121.233 Y114.967 E231.62537
G1 F2400 X111.315 Y122.212 E232.03388
G1 F2400 X100.082 Y117.244 E232.44239
G1 F2400 X98.767 Y105.033 E232.8509
G0 F12000 X98.963 Y104.611 Z19.2
G1 F2400 X109.148 Y97.747 E233.25941
G1 F2400 X120.185 Y103.136 E233.66792
G1 F2400 X121.037 Y115.389 E234.07643
G1 F2400 X110.852 Y122.253 E234.48494
G1 F2400 X99.815 Y116.864 E234.89345
G1 F2400 X98.963 Y104.611 E235.30196
G0 F12000 X99.175 Y104.197 Z19.4
G1 F2400 X109.613 Y97.724 E235.71047
G1 F2400 X120.438 Y103.526 E236.11898
G1 F2400 X120.825 Y115.803 E236.52749
G1 F2400 X110.387 Y122.276 E236.936
G1 F2400 X99.562 Y116.474 E237.34451
G1 F2400 X99.175 Y104.197 E237.75302
G0 F12000 X99.402 Y103.792 Z19.6
G1 F2400 X110.077 Y97.718 E238.16153
G1 F2400 X120.675 Y103.926 E238.57004
G1 F2400 X120.598 Y116.208 E238.97855
G1 F2400 X109.923 Y122.282 E239.38706
G1 F2400 X99.325 Y116.074 E239.79557
G1 F2400 X99.402 Y103.792 E240.20408
G0 F12000 X99.645 Y103.395 Z19.8
G1 F2400 X110.542 Y97.73 E240.61259
G1 F2400 X120.897 Y104.334 E241.0211
G1 F2400 X120.355 Y116.605 E241.42961
G1 F2400 X109.458 Y122.27 E241.83813
G1 F2400 X99.103 Y115.666 E242.24664
G1 F2400 X99.645 Y103.395 E242.65515
G0 F12000 X99.902 Y103.008 Z20.0
G1 F2400 X111.006 Y97.759 E243.06366
G1 F2400 X121.104 Y104.751 E243.47217
G1 F2400 X120.098 Y116.992 E243.88068
G1 F2400 X108.994 Y122.241 E244.28919
G1 F2400 X98.896 Y115.249 E244.6977
G1 F2400 X99.902 Y103.008 E245.10621
G0 F12000 X100.174 Y102.631 Z20.2
G1 F2400 X111.469 Y97.806 E245.51472
G1 F2400 X121.295 Y105.175 E245.92323
G1 F2400 X119.826 Y117.369 E246.33174
G1 F2400 X108.531 Y122.194 E246.74025
G1 F2400 X98.705 Y114.825 E247.14876
G1 F2400 X100.174 Y102.631 E247.55727
G0 F12000 X100.46 Y102.264 Z20.4
G1 F2400 X111.929 Y97.87 E247.96578
G1 F2400 X121.469 Y105.606 E248.37429
G1 F2400 X119.54 Y117.736 E248.7828
G1 F2400 X108.071 Y122.13 E249.19131
G1 F2400 X98.531 Y114.394 E249.59982
G1 F2400 X100.46 Y102.264 E250.00833
G0 F12000 X100.759 Y101.909 Z20.6
G1 F2400 X112.387 Y97.952 E250.41684
G1 F2400 X121.627 Y106.043 E250.82535
G1 F2400 X119.241 Y118.091 E251.23386
G1 F2400 X107.613 Y122.048 E251.64237
G1 F2400 X98.373 Y113.957 E252.05088
G1 F2400 X100.759 Y101.909 E252.45939
G0 F12000 X101.072 Y101.565 Z20.8
G1 F2400 X112.841 Y98.051 E252.8679
G1 F2400 X121.769 Y106.486 E253.27641
G1 F2400 X118.928 Y118.435 E253.68493
G1 F2400 X107.159 Y121.949 E254.09344
G1 F2400 X98.231 Y113.514 E254.50195
G1 F2400 X101.072 Y101.565 E254.91046
G0 F12000 X101.398 Y101.233 Z21.0
G1 F2400 X113.291 Y98.167 E255.31897
G1 F2400 X121.893 Y106.934 E255.72748
G1 F2400 X118.602 Y118.767 E256.13599
G1 F2400 X106.709 Y121.833 E256.5445
G1 F2400 X98.107 Y113.066 E256.95301
G1 F2400 X101.398 Y101.233 E257.36152
G0 F12000 X101.736 Y100.914 Z21.2
G1 F2400 X113.736 Y98.3 E257.77003
G1 F2400 X122.001 Y107.386 E258.17854
G1 F2400 X118.264 Y119.086 E258.58705
G1 F2400 X106.264 Y121.7 E258.99556
G1 F2400 X97.999 Y112.614 E259.40407
G1 F2400 X101.736 Y100.914 E259.81258
G0 F12000 X102.085 Y100.608 Z21.4
G1 F2400 X114.177 Y98.45 E260.22109
G1 F2400 X122.091 Y107.842 E260.6296
G1 F2400 X117.915 Y119.392 E261.03811
G1 F2400 X105.823 Y121.55 E261.44662
G1 F2400 X97.909 Y112.158 E261.85513
G1 F2400 X102.085 Y100.608 E262.26364
G0 F12000 X102.446 Y100.315 Z21.6
G1 F2400 X114.611 Y98.616 E262.67215
G1 F2400 X122.164 Y108.301 E263.08066
G1 F2400 X117.554 Y119.685 E263.48917
G1 F2400 X105.389 Y121.384 E263.89768
G1 F2400 X97.836 Y111.699 E264.30619
G1 F2400 X102.446 Y100.315 E264.7147
G0 F12000 X102.818 Y100.036 Z21.8
G1 F2400 X115.038 Y98.799 E265.12321
G1 F2400 X122.22 Y108.762 E265.53173
G1 F2400 X117.182 Y119.964 E265.94024
G1 F2400 X104.962 Y121.201 E266.34875
G1 F2400 X97.78 Y111.238 E266.75726
G1 F2400 X102.818 Y100.036 E267.16577
G0 F12000 X103.201 Y99.772 Z22.0
G1 F2400 X115.458 Y98.997 E267.57428
G1 F2400 X122.258 Y109.226 E267.98279
G1 F2400 X116.799 Y120.228 E268.3913
G1 F2400 X104.542 Y121.003 E268.79981
G1 F2400 X97.742 Y110.774 E269.20832
G1 F2400 X103.201 Y99.772 E269.61683
G0 F12000 X103.592 Y99.522 Z22.2
G1 F2400 X115.871 Y99.212 E270.02534
G1 F2400 X122.278 Y109.69 E270.43385
G1 F2400 X116.408 Y120.478 E270.84236
G1 F2400 X104.129 Y120.788 E271.25087
G1 F2400 X97.722 Y110.31 E271.65938
G1 F2400 X103.592 Y99.522 E272.06789
G0 F12000 X103.994 Y99.287 Z22.4
G1 F2400 X116.275 Y99.442 E272.4764
G1 F2400 X122.281 Y110.155 E272.88491
G1 F2400 X116.006 Y120.713 E273.29342
G1 F2400 X103.725 Y120.558 E273.70193
G1 F2400 X97.719 Y109.845 E274.11044
G1 F2400 X103.994 Y99.287 E274.51895
G0 F12000 X104.403 Y99.067 Z22.6
G1 F2400 X116.67 Y99.687 E274.92746
G1 F2400 X122.267 Y110.62 E275.33597
G1 F2400 X115.597 Y120.933 E275.74448
G1 F2400 X103.33 Y120.313 E276.15299
G1 F2400 X97.733 Y109.38 E276.5615
G1 F2400 X104.403 Y99.067 E276.97001
G0 F12000 X104.821 Y98.863 Z22.8
G1 F2400 X117.055 Y99.946 E277.37853
G1 F2400 X122.234 Y111.083 E277.78704
G1 F2400 X115.179 Y121.137 E278.19555
G1 F2400 X102.945 Y120.054 E278.60406
G1 F2400 X97.766 Y108.917 E279.01257
G1 F2400 X104.821 Y98.863 E279.42108
G0 F12000 X105.246 Y98.675 Z23.0
G1 F2400 X117.431 Y100.221 E279.82959
G1 F2400 X122.185 Y111.546 E280.2381
G1 F2400 X114.754 Y121.325 E280.64661
G1 F2400 X102.569 Y119.779 E281.05512
G1 F2400 X97.815 Y108.454 E281.46363
G1 F2400 X105.246 Y98.675 E281.87214
G0 F12000 X105.678 Y98.503 Z23.2
G1 F2400 X117.796 Y100.509 E282.28065
G1 F2400 X122.117 Y112.006 E282.68916
G1 F2400 X114.322 Y121.497 E283.09767
G1 F2400 X102.204 Y119.491 E283.50618
G1 F2400 X97.883 Y107.994 E283.91469
G1 F2400 X105.678 Y98.503 E284.3232
G0 F12000 X106.116 Y98.348 Z23.4
G1 F2400 X118.149 Y100.811 E284.73171
G1 F2400 X122.033 Y112.463 E285.14022
G1 F2400 X113.884 Y121.652 E285.54873
G1 F2400 X101.851 Y119.189 E285.95724
G1 F2400 X97.967 Y107.537 E286.36575
G1 F2400 X106.116 Y98.348 E286.77426
G0 F12000 X106.56 Y98.209 Z23.6
G1 F2400 X118.491 Y101.125 E287.18277
G1 F2400 X121.931 Y112.916 E287.59128
G1 F2400 X113.44 Y121.791 E287.99979
G1 F2400 X101.509 Y118.875 E288.4083
G1 F2400 X98.069 Y107.084 E288.81682
G1 F2400 X106.56 Y98.209 E289.22533
G0 F12000 X107.009 Y98.088 Z23.8
G1 F2400 X118.821 Y101.453 E289.63384
G1 F2400 X121.812 Y113.366 E290.04235
G1 F2400 X112.991 Y121.912 E290.45086
G1 F2400 X101.179 Y118.547 E290.85937
G1 F2400 X98.188 Y106.634 E291.26788
G1 F2400 X107.009 Y98.088 E291.67639
G0 F12000 X107.462 Y97.983 Z24.0
G1 F2400 X119.138 Y101.793 E292.0849
G1 F2400 X121.676 Y113.81 E292.49341
G1 F2400 X112.538 Y122.017 E292.90192
G1 F2400 X100.862 Y118.207 E293.31043
G1 F2400 X98.324 Y106.19 E293.71894
G1 F2400 X107.462 Y97.983 E294.12745
G0 F12000 X107.918 Y97.895 Z24.2
G1 F2400 X119.442 Y102.145 E294.53596
G1 F2400 X121.524 Y114.249 E294.94447
G1 F2400 X112.082 Y122.105 E295.35298
G1 F2400 X100.558 Y117.855 E295.76149
G1 F2400 X98.476 Y105.751 E296.17
G1 F2400 X107.918 Y97.895 E296.57851
G0 F12000 X108.378 Y97.825 Z24.4
G1 F2400 X119.732 Y102.508 E296.98702
G1 F2400 X121.355 Y114.682 E297.39553
G1 F2400 X111.622 Y122.175 E297.80404
G1 F2400 X100.268 Y117.492 E298.21255
G1 F2400 X98.645 Y105.318 E298.62106
G1 F2400 X108.378 Y97.825 E299.02957
G0 F12000 X108.84 Y97.773 Z24.6
G1 F2400 X120.009 Y102.881 E299.43808
G1 F2400 X121.169 Y115.109 E299.84659
G1 F2400 X111.16 Y122.227 E300.2551
G1 F2400 X99.991 Y117.119 E300.66362
G1 F2400 X98.831 Y104.891 E301.07213
G1 F2400 X108.84 Y97.773 E301.48064
G0 F12000 X109.303 Y97.738 Z24.8
G1 F2400 X120.271 Y103.265 E301.88915
G1 F2400 X120.968 Y115.528 E302.29766
G1 F2400 X110.697 Y122.262 E302.70617
G1 F2400 X99.729 Y116.735 E303.11468
G1 F2400 X99.032 Y104.472 E303.52319
G1 F2400 X109.303 Y97.738 E303.9317
G0 F12000 X109.768 Y97.72 Z25.0
G1 F2400 X120.519 Y103.659 E304.34021
G1 F2400 X120.751 Y115.939 E304.74872
G1 F2400 X110.232 Y122.28 E305.15723
G1 F2400 X99.481 Y116.341 E305.56574
G1 F2400 X99.249 Y104.061 E305.97425
G1 F2400 X109.768 Y97.72 E306.38276
G0 F12000 X110.232 Y97.72 Z25.2
G1 F2400 X120.751 Y104.061 E306.79127
G1 F2400 X120.519 Y116.341 E307.19978
G1 F2400 X109.768 Y122.28 E307.60829
G1 F2400 X99.249 Y115.939 E308.0168
G1 F2400 X99.481 Y103.659 E308.42531
G1 F2400 X110.232 Y97.72 E308.83382
G0 F12000 X110.697 Y97.738 Z25.4
G1 F2400 X120.968 Y104.472 E309.24233
G1 F2400 X120.271 Y116.735 E309.65084
G1 F2400 X109.303 Y122.262 E310.05935
G1 F2400 X99.032 Y115.528 E310.46786
G1 F2400 X99.729 Y103.265 E310.87637
G1 F2400 X110.697 Y97.738 E311.28488
G0 F12000 X111.16 Y97.773 Z25.6
G1 F2400 X121.169 Y104.891 E311.69339
G1 F2400 X120.009 Y117.119 E312.1019
G1 F2400 X108.84 Y122.227 E312.51042
G1 F2400 X98.831 Y115.109 E312.91893
G1 F2400 X99.991 Y102.881 E313.32744
G1 F2400 X111.16 Y97.773 E313.73595
G0 F12000 X111.622 Y97.825 Z25.8
G1 F2400 X121.355 Y105.318 E314.14446
G1 F2400 X119.732 Y117.492 E314.55297
G1 F2400 X108.378 Y122.175 E314.96148
G1 F2400 X98.645 Y114.682 E315.36999
G1 F2400 X100.268 Y102.508 E315.7785
G1 F2400 X111.622 Y97.825 E316.18701
G0 F12000 X112.082 Y97.895 Z26.0
G1 F2400 X121.524 Y105.751 E316.59552
G1 F2400 X119.442 Y117.855 E317.00403
G1 F2400 X107.918 Y122.105 E317.41254
G1 F2400 X98.476 Y114.249 E317.82105
G1 F2400 X100.558 Y102.145 E318.22956
G1 F2400 X112.082 Y97.895 E318.63807
G0 F12000 X112.538 Y97.983 Z26.2
G1 F2400 X121.676 Y106.19 E319.04658
G1 F2400 X119.138 Y118.207 E319.45509
G1 F2400 X107.462 Y122.017 E319.8636
G1 F2400 X98.324 Y113.81 E320.27211
G1 F2400 X100.862 Y101.793 E320.68062
G1 F2400 X112.538 Y97.983 E321.08913
G0 F12000 X112.991 Y98.088 Z26.4
G1 F2400 X121.812 Y106.634 E321.49764
G1 F2400 X118.821 Y118.547 E321.90615
G1 F2400 X107.009 Y121.912 E322.31466
G1 F2400 X98.188 Y113.366 E322.72317
G1 F2400 X101.179 Y101.453 E323.13168
G1 F2400 X112.991 Y98.088 E323.54019
G0 F12000 X113.44 Y98.209 Z26.6
G1 F2400 X121.931 Y107.084 E323.9487
G1 F2400 X118.491 Y118.875 E324.35722
G1 F2400 X106.56 Y121.791 E324.76573
G1 F2400 X98.069 Y112.916 E325.17424
G1 F2400 X101.509 Y101.125 E325.58275
G1 F2400 X113.44 Y98.209 E325.99126
G0 F12000 X113.884 Y98.348 Z26.8
G1 F2400 X122.033 Y107.537 E326.39977
G1 F2400 X118.149 Y119.189 E326.80828
G1 F2400 X106.116 Y121.652 E327.21679
G1 F2400 X97.967 Y112.463 E327.6253
G1 F2400 X101.851 Y100.811 E328.03381
G1 F2400 X113.884 Y98.348 E328.44232
G0 F12000 X114.322 Y98.503 Z27.0
G1 F2400 X122.117 Y107.994 E328.85083
G1 F2400 X117.796 Y119.491 E329.25934
G1 F2400 X105.678 Y121.497 E329.66785
G1 F2400 X97.883 Y112.006 E330.07636
G1 F2400 X102.204 Y100.509 E330.48487
G1 F2400 X114.322 Y98.503 E330.89338
G0 F12000 X114.754 Y98.675 Z27.2
G1 F2400 X122.185 Y108.454 E331.30189
G1 F2400 X117.431 Y119.779 E331.7104
G1 F2400 X105.246 Y121.325 E332.11891
G1 F2400 X97.815 Y111.546 E332.52742
G1 F2400 X102.569 Y100.221 E332.93593
G1 F2400 X114.754 Y98.675 E333.34444
G0 F12000 X115.179 Y98.863 Z27.4
G1 F2400 X122.234 Y108.917 E333.75295
G1 F2400 X117.055 Y120.054 E334.16146
G1 F2400 X104.821 Y121.137 E334.56997
G1 F2400 X97.766 Y111.083 E334.97848
G1 F2400 X102.945 Y99.946 E335.38699
G1 F2400 X115.179 Y98.863 E335.7955
G0 F12000 X115.597 Y99.067 Z27.6
G1 F2400 X122.267 Y109.38 E336.20402
G1 F2400 X116.67 Y120.313 E336.61253
G1 F2400 X104.403 Y120.933 E337.02104
G1 F2400 X97.733 Y110.62 E337.42955
G1 F2400 X103.33 Y99.687 E337.83806
G1 F2400 X115.597 Y99.067 E338.24657
G0 F12000 X116.006 Y99.287 Z27.8
G1 F2400 X122.281 Y109.845 E338.65508
G1 F2400 X116.275 Y120.558 E339.06359
G1 F2400 X103.994 Y120.713 E339.4721
G1 F2400 X97.719 Y110.155 E339.88061
G1 F2400 X103.725 Y99.442 E340.28912
G1 F2400 X116.006 Y99.287 E340.69763
G0 F12000 X116.408 Y99.522 Z28.0
G1 F2400 X122.278 Y110.31 E341.10614
G1 F2400 X115.871 Y120.788 E341.51465
G1 F2400 X103.592 Y120.478 E341.92316
G1 F2400 X97.722 Y109.69 E342.33167
G1 F2400 X104.129 Y99.212 E342.74018
G1 F2400 X116.408 Y99.522 E343.14869
G0 F12000 X116.799 Y99.772 Z28.2
G1 F2400 X122.258 Y110.774 E343.5572
G1 F2400 X115.458 Y121.003 E343.96571
G1 F2400 X103.201 Y120.228 E344.37422
G1 F2400 X97.742 Y109.226 E344.78273
G1 F2400 X104.542 Y98.997 E345.19124
G1 F2400 X116.799 Y99.772 E345.59975
G0 F12000 X117.182 Y100.036 Z28.4
G1 F2400 X122.22 Y111.238 E346.00826
G1 F2400 X115.038 Y121.201 E346.41677
G1 F2400 X102.818 Y119.964 E346.82528
G1 F2400 X97.78 Y108.762 E347.23379
G1 F2400 X104.962 Y98.799 E347.6423
G1 F2400 X117.182 Y100.036 E348.05082
G0 F12000 X117.554 Y100.315 Z28.6
G1 F2400 X122.164 Y111.699 E348.45933
G1 F2400 X114.611 Y121.384 E348.86784
G1 F2400 X102.446 Y119.685 E349.27635
G1 F2400 X97.836 Y108.301 E349.68486
G1 F2400 X105.389 Y98.616 E350.09337
G1 F2400 X117.554 Y100.315 E350.50188
G0 F12000 X117.915 Y100.608 Z28.8
G1 F2400 X122.091 Y112.158 E350.91039
G1 F2400 X114.177 Y121.55 E351.3189
G1 F2400 X102.085 Y119.392 E351.72741
G1 F2400 X97.909 Y107.842 E352.13592
G1 F2400 X105.823 Y98.45 E352.54443
G1 F2400 X117.915 Y100.608 E352.95294
G0 F12000 X118.264 Y100.914 Z29.0
G1 F2400 X122.001 Y112.614 E353.36145
G1 F2400 X113.736 Y121.7 E353.76996
G1 F2400 X101.736 Y119.086 E354.17847
G1 F2400 X97.999 Y107.386 E354.58698
G1 F2400 X106.264 Y98.3 E354.99549
G1 F2400 X118.264 Y100.914 E355.404
G0 F12000 X118.602 Y101.233 Z29.2
G1 F2400 X121.893 Y113.066 E355.81251
G1 F2400 X113.291 Y121.833 E356.22102
G1 F2400 X101.398 Y118.767 E356.62953
G1 F2400 X98.107 Y106.934 E357.03804
G1 F2400 X106.709 Y98.167 E357.44655
G1 F2400 X118.602 Y101.233 E357.85506
G0 F12000 X118.928 Y101.565 Z29.4
G1 F2400 X121.769 Y113.514 E358.26357
G1 F2400 X112.841 Y121.949 E358.67208
G1 F2400 X101.072 Y118.435 E359.08059
G1 F2400 X98.231 Y106.486 E359.48911
G1 F2400 X107.159 Y98.051 E359.89762
G1 F2400 X118.928 Y101.565 E360.30613
G0 F12000 X119.241 Y101.909 Z29.6
G1 F2400 X121.627 Y113.957 E360.71464
G1 F2400 X112.387 Y122.048 E361.12315
G1 F2400 X100.759 Y118.091 E361.53166
G1 F2400 X98.373 Y106.043 E361.94017
G1 F2400 X107.613 Y97.952 E362.34868
G1 F2400 X119.241 Y101.909 E362.75719
G0 F12000 X119.54 Y102.264 Z29.8
G1 F2400 X121.469 Y114.394 E363.1657
G1 F2400 X111.929 Y122.13 E363.57421
G1 F2400 X100.46 Y117.736 E363.98272
G1 F2400 X98.531 Y105.606 E364.39123
G1 F2400 X108.071 Y97.87 E364.79974
G1 F2400 X119.54 Y102.264 E365.20825
G0 F12000 X119.826 Y102.631 Z30.0
G1 F2400 X121.295 Y114.825 E365.61676
G1 F2400 X111.469 Y122.194 E366.02527
G1 F2400 X100.174 Y117.369 E366.43378
G1 F2400 X98.705 Y105.175 E366.84229
G1 F2400 X108.531 Y97.806 E367.2508
G1 F2400 X119.826 Y102.631 E367.65931
G0 F12000 X120.098 Y103.008 Z30.2
G1 F2400 X121.104 Y115.249 E368.06782
G1 F2400 X111.006 Y122.241 E368.47633
G1 F2400 X99.902 Y116.992 E368.88484
G1 F2400 X98.896 Y104.751 E369.29335
G1 F2400 X108.994 Y97.759 E369.70186
G1 F2400 X120.098 Y103.008 E370.11037
G0 F12000 X120.355 Y103.395 Z30.4
G1 F2400 X120.897 Y115.666 E370.51888
G1 F2400 X110.542 Y122.27 E370.92739
G1 F2400 X99.645 Y116.605 E371.33591
G1 F2400 X99.103 Y104.334 E371.74442
G1 F2400 X109.458 Y97.73 E372.15293
G1 F2400 X120.355 Y103.395 E372.56144
G0 F12000 X120.598 Y103.792 Z30.6
G1 F2400 X120.675 Y116.074 E372.96995
G1 F2400 X110.077 Y122.282 E373.37846
G1 F2400 X99.402 Y116.208 E373.78697
G1 F2400 X99.325 Y103.926 E374.19548
G1 F2400 X109.923 Y97.718 E374.60399
G1 F2400 X120.598 Y103.792 E375.0125
G0 F12000 X120.825 Y104.197 Z30.8
G1 F2400 X120.438 Y116.474 E375.42101
G1 F2400 X109.613 Y122.276 E375.82952
G1 F2400 X99.175 Y115.803 E376.23803
G1 F2400 X99.562 Y103.526 E376.64654
G1 F2400 X110.387 Y97.724 E377.05505
G1 F2400 X120.825 Y104.197 E377.46356
G0 F12000 X121.037 Y104.611 Z31.0
G1 F2400 X120.185 Y116.864 E377.87207
G1 F2400 X109.148 Y122.253 E378.28058
G1 F2400 X98.963 Y115.389 E378.68909
G1 F2400 X99.815 Y103.136 E379.0976
G1 F2400 X110.852 Y97.747 E379.50611
G1 F2400 X121.037 Y104.611 E379.91462
G0 F12000 X121.233 Y105.033 Z31.2
G1 F2400 X119.918 Y117.244 E380.32313
G1 F2400 X108.685 Y122.212 E380.73164
G1 F2400 X98.767 Y114.967 E381.14015
G1 F2400 X100.082 Y102.756 E381.54866
G1 F2400 X111.315 Y97.788 E381.95717
G1 F2400 X121.233 Y105.033 E382.36568
G0 F12000 X121.413 Y105.461 Z31.4
G1 F2400 X119.637 Y117.615 E382.77419
G1 F2400 X108.224 Y122.153 E383.18271
G1 F2400 X98.587 Y114.539 E383.59122
G1 F2400 X100.363 Y102.385 E383.99973
G1 F2400 X111.776 Y97.847 E384.40824
G1 F2400 X121.413 Y105.461 E384.81675
G0 F12000 X121.576 Y105.896 Z31.6
G1 F2400 X119.342 Y117.974 E385.22526
G1 F2400 X107.766 Y122.077 E385.63377
G1 F2400 X98.424 Y114.104 E386.04228
G1 F2400 X100.658 Y102.026 E386.45079
G1 F2400 X112.234 Y97.923 E386.8593
G1 F2400 X121.576 Y105.896 E387.26781
G0 F12000 X121.723 Y106.337 Z31.8
G1 F2400 X119.034 Y118.322 E387.67632
G1 F2400 X107.31 Y121.984 E388.08483
G1 F2400 X98.277 Y113.663 E388.49334
G1 F2400 X100.966 Y101.678 E388.90185
G1 F2400 X112.69 Y98.016 E389.31036
G1 F2400 X121.723 Y106.337 E389.71887
G0 F12000 X121.854 Y106.784 Z32.0
G1 F2400 X118.712 Y118.657 E390.12738
G1 F2400 X106.859 Y121.874 E390.53589
G1 F2400 X98.146 Y113.216 E390.9444
G1 F2400 X101.288 Y101.343 E391.35291
G1 F2400 X113.141 Y98.126 E391.76142
G1 F2400 X121.854 Y106.784 E392.16993
G0 F12000 X121.967 Y107.235 Z32.2
G1 F2400 X118.378 Y118.981 E392.57844
G1 F2400 X106.411 Y121.746 E392.98695
G1 F2400 X98.033 Y112.765 E393.39546
G1 F2400 X101.622 Y101.019 E393.80397
G1 F2400 X113.589 Y98.254 E394.21248
G1 F2400 X121.967 Y107.235 E394.62099
G0 F12000 X122.063 Y107.689 Z32.4
G1 F2400 X118.033 Y119.292 E395.02951
G1 F2400 X105.97 Y121.602 E395.43802
G1 F2400 X97.937 Y112.311 E395.84653
G1 F2400 X101.967 Y100.708 E396.25504
G1 F2400 X114.03 Y98.398 E396.66355
G1 F2400 X122.063 Y107.689 E397.07206
G0 F12000 X122.142 Y108.148 Z32.6
G1 F2400 X117.675 Y119.589 E397.48057
G1 F2400 X105.533 Y121.441 E397.88908
G1 F2400 X97.858 Y111.852 E398.29759
G1 F2400 X102.325 Y100.411 E398.7061
G1 F2400 X114.467 Y98.559 E399.11461
G1 F2400 X122.142 Y108.148 E399.52312
G0 F12000 X122.203 Y108.608 Z32.8
G1 F2400 X117.307 Y119.872 E399.93163
G1 F2400 X105.104 Y121.264 E400.34014
G1 F2400 X97.797 Y111.392 E400.74865
G1 F2400 X102.693 Y100.128 E401.15716
G1 F2400 X114.896 Y98.736 E401.56567
G1 F2400 X122.203 Y108.608 E401.97418
G0 F12000 X122.247 Y109.071 Z33.0
G1 F2400 X116.928 Y120.142 E402.38269
G1 F2400 X104.681 Y121.071 E402.7912
G1 F2400 X97.753 Y110.929 E403.19971
G1 F2400 X103.072 Y99.858 E403.60822
G1 F2400 X115.319 Y98.929 E404.01673
G1 F2400 X122.247 Y109.071 E404.42524
G0 F12000 X122.273 Y109.535 Z33.2
G1 F2400 X116.539 Y120.397 E404.83375
G1 F2400 X104.266 Y120.862 E405.24226
G1 F2400 X97.727 Y110.465 E405.65077
G1 F2400 X103.461 Y99.603 E406.05928
G1 F2400 X115.734 Y99.138 E406.46779
G1 F2400 X122.273 Y109.535 E406.87631
G0 F12000 X122.282 Y110.0 Z33.4
G1 F2400 X116.141 Y120.637 E407.28482
G1 F2400 X103.859 Y120.637 E407.69333
G1 F2400 X97.718 Y110.0 E408.10184
G1 F2400 X103.859 Y99.363 E408.51035
G1 F2400 X116.141 Y99.363 E408.91886
G1 F2400 X122.282 Y110.0 E409.32737
G0 F12000 X122.273 Y110.465 Z33.6
G1 F2400 X115.734 Y120.862 E409.73588
G1 F2400 X103.461 Y120.397 E410.14439
G1 F2400 X97.727 Y109.535 E410.5529
G1 F2400 X104.266 Y99.138 E410.96141
G1 F2400 X116.539 Y99.603 E411.36992
G1 F2400 X122.273 Y110.465 E411.77843
G0 F12000 X122.247 Y110.929 Z33.8
G1 F2400 X115.319 Y121.071 E412.18694
G1 F2400 X103.072 Y120.142 E412.59545
G1 F2400 X97.753 Y109.071 E413.00396
G1 F2400 X104.681 Y98.929 E413.41247
G1 F2400 X116.928 Y99.858 E413.82098
G1 F2400 X122.247 Y110.929 E414.22949
G0 F12000 X122.203 Y111.392 Z34.0
G1 F2400 X114.896 Y121.264 E414.638
G1 F2400 X102.693 Y119.872 E415.04651
G1 F2400 X97.797 Y108.608 E415.45502
G1 F2400 X105.104 Y98.736 E415.86353
G1 F2400 X117.307 Y100.128 E416.27204
G1 F2400 X122.203 Y111.392 E416.68055
G0 F12000 X122.142 Y111.852 Z34.2
G1 F2400 X114.467 Y121.441 E417.08906
G1 F2400 X102.325 Y119.589 E417.49757
G1 F2400 X97.858 Y108.148 E417.90608
G1 F2400 X105.533 Y98.559 E418.31459
G1 F2400 X117.675 Y100.411 E418.72311
G1 F2400 X122.142 Y111.852 E419.13162
G0 F12000 X122.063 Y112.311 Z34.4
G1 F2400 X114.03 Y121.602 E419.54013
G1 F2400 X101.967 Y119.292 E419.94864
G1 F2400 X97.937 Y107.689 E420.35715
G1 F2400 X105.97 Y98.398 E420.76566
G1 F2400 X118.033 Y100.708 E421.17417
G1 F2400 X122.063 Y112.311 E421.58268
G0 F12000 X121.967 Y112.765 Z34.6
G1 F2400 X113.589 Y121.746 E421.99119
G1 F2400 X101.622 Y118.981 E422.3997
G1 F2400 X98.033 Y107.235 E422.80821
G1 F2400 X106.411 Y98.254 E423.21672
G1 F2400 X118.378 Y101.019 E423.62523
G1 F2400 X121.967 Y112.765 E424.03374
G0 F12000 X121.854 Y113.216 Z34.8
G1 F2400 X113.141 Y121.874 E424.44225
G1 F2400 X101.288 Y118.657 E424.85076
G1 F2400 X98.146 Y106.784 E425.25927
G1 F2400 X106.859 Y98.126 E425.66778
G1 F2400 X118.712 Y101.343 E426.07629
G1 F2400 X121.854 Y113.216 E426.4848
G0 F12000 X121.723 Y113.663 Z35.0
G1 F2400 X112.69 Y121.984 E426.89331
G1 F2400 X100.966 Y118.322 E427.30182
G1 F2400 X98.277 Y106.337 E427.71033
G1 F2400 X107.31 Y98.016 E428.11884
G1 F2400 X119.034 Y101.678 E428.52735
G1 F2400 X121.723 Y113.663 E428.93586
G0 F12000 X121.576 Y114.104 Z35.2
G1 F2400 X112.234 Y122.077 E429.34437
G1 F2400 X100.658 Y117.974 E429.75288
G1 F2400 X98.424 Y105.896 E430.16139
G1 F2400 X107.766 Y97.923 E430.56991
G1 F2400 X119.342 Y102.026 E430.97842
G1 F2400 X121.576 Y114.104 E431.38693
G0 F12000 X121.413 Y114.539 Z35.4
G1 F2400 X111.776 Y122.153 E431.79544
G1 F2400 X100.363 Y117.615 E432.20395
G1 F2400 X98.587 Y105.461 E432.61246
G1 F2400 X108.224 Y97.847 E433.02097
G1 F2400 X119.637 Y102.385 E433.42948
G1 F2400 X121.413 Y114.539 E433.83799
G0 F12000 X121.233 Y114.967 Z35.6
G1 F2400 X111.315 Y122.212 E434.2465
G1 F2400 X100.082 Y117.244 E434.65501
G1 F2400 X98.767 Y105.033 E435.06352
G1 F2400 X108.685 Y97.788 E435.47203
G1 F2400 X119.918 Y102.756 E435.88054
G1 F2400 X121.233 Y114.967 E436.28905
G0 F12000 X121.037 Y115.389 Z35.8
G1 F2400 X110.852 Y122.253 E436.69756
G1 F2400 X99.815 Y116.864 E437.10607
G1 F2400 X98.963 Y104.611 E437.51458
G1 F2400 X109.148 Y97.747 E437.92309
G1 F2400 X120.185 Y103.136 E438.3316
G1 F2400 X121.037 Y115.389 E438.74011
G0 F12000 X120.825 Y115.803 Z36.0
G1 F2400 X110.387 Y122.276 E439.14862
G1 F2400 X99.562 Y116.474 E439.55713
G1 F2400 X99.175 Y104.197 E439.96564
G1 F2400 X109.613 Y97.724 E440.37415
G1 F2400 X120.438 Y103.526 E440.78266
G1 F2400 X120.825 Y115.803 E441.19117
G0 F12000 X120.598 Y116.208 Z36.2
G1 F2400 X109.923 Y122.282 E441.59968
G1 F2400 X99.325 Y116.074 E442.0082
G1 F2400 X99.402 Y103.792 E442.41671
G1 F2400 X110.077 Y97.718 E442.82522
G1 F2400 X120.675 Y103.926 E443.23373
G1 F2400 X120.598 Y116.208 E443.64224
G0 F12000 X120.355 Y116.605 Z36.4
G1 F2400 X109.458 Y122.27 E444.05075
G1 F2400 X99.103 Y115.666 E444.45926
G1 F2400 X99.645 Y103.395 E444.86777
G1 F2400 X110.542 Y97.73 E445.27628
G1 F2400 X120.897 Y104.334 E445.68479
G1 F2400 X120.355 Y116.605 E446.0933
G0 F12000 X120.098 Y116.992 Z36.6
G1 F2400 X108.994 Y122.241 E446.50181
G1 F2400 X98.896 Y115.249 E446.91032
G1 F2400 X99.902 Y103.008 E447.31883
G1 F2400 X111.006 Y97.759 E447.72734
G1 F2400 X121.104 Y104.751 E448.13585
G1 F2400 X120.098 Y116.992 E448.54436
G0 F12000 X119.826 Y117.369 Z36.8
G1 F2400 X108.531 Y122.194 E448.95287
G1 F2400 X98.705 Y114.825 E449.36138
G1 F2400 X100.174 Y102.631 E449.76989
G1 F2400 X111.469 Y97.806 E450.1784
G1 F2400 X121.295 Y105.175 E450.58691
G1 F2400 X119.826 Y117.369 E450.99542
G0 F12000 X119.54 Y117.736 Z37.0
G1 F2400 X108.071 Y122.13 E451.40393
G1 F2400 X98.531 Y114.394 E451.81244
G1 F2400 X100.46 Y102.264 E452.22095
G1 F2400 X111.929 Y97.87 E452.62946
G1 F2400 X121.469 Y105.606 E453.03797
G1 F2400 X119.54 Y117.736 E453.44648
G0 F12000 X119.241 Y118.091 Z37.2
G1 F2400 X107.613 Y122.048 E453.855
G1 F2400 X98.373 Y113.957 E454.26351
G1 F2400 X100.759 Y101.909 E454.67202
G1 F2400 X112.387 Y97.952 E455.08053
G1 F2400 X121.627 Y106.043 E455.48904
G1 F2400 X119.241 Y118.091 E455.89755
G0 F12000 X118.928 Y118.435 Z37.4
G1 F2400 X107.159 Y121.949 E456.30606
G1 F2400 X98.231 Y113.514 E456.71457
G1 F2400 X101.072 Y101.565 E457.12308
G1 F2400 X112.841 Y98.051 E457.53159
G1 F2400 X121.769 Y106.486 E457.9401
G1 F2400 X118.928 Y118.435 E458.34861
G0 F12000 X118.602 Y118.767 Z37.6
G1 F2400 X106.709 Y121.833 E458.75712
G1 F2400 X98.107 Y113.066 E459.16563
G1 F2400 X101.398 Y101.233 E459.57414
G1 F2400 X113.291 Y98.167 E459.98265
G1 F2400 X121.893 Y106.934 E460.39116
G1 F2400 X118.602 Y118.767 E460.79967
G0 F12000 X118.264 Y119.086 Z37.8
G1 F2400 X106.264 Y121.7 E461.20818
G1 F2400 X97.999 Y112.614 E461.61669
G1 F2400 X101.736 Y100.914 E462.0252
G1 F2400 X113.736 Y98.3 E462.43371
G1 F2400 X122.001 Y107.386 E462.84222
G1 F2400 X118.264 Y119.086 E463.25073
G0 F12000 X117.915 Y119.392 Z38.0
G1 F2400 X105.823 Y121.55 E463.65924
G1 F2400 X97.909 Y112.158 E464.06775
G1 F2400 X102.085 Y100.608 E464.47626
G1 F2400 X114.177 Y98.45 E464.88477
G1 F2400 X122.091 Y107.842 E465.29328
G1 F2400 X117.915 Y119.392 E465.7018
G0 F12000 X117.554 Y119.685 Z38.2
G1 F2400 X105.389 Y121.384 E466.11031
G1 F2400 X97.836 Y111.699 E466.51882
G1 F2400 X102.446 Y100.315 E466.92733
G1 F2400 X114.611 Y98.616 E467.33584
G1 F2400 X122.164 Y108.301 E467.74435
G1 F2400 X117.554 Y119.685 E468.15286
G0 F12000 X117.182 Y119.964 Z38.4
G1 F2400 X104.962 Y121.201 E468.56137
G1 F2400 X97.78 Y111.238 E468.96988
G1 F2400 X102.818 Y100.036 E469.37839
G1 F2400 X115.038 Y98.799 E469.7869
G1 F2400 X122.22 Y108.762 E470.19541
G1 F2400 X117.182 Y119.964 E470.60392
G0 F12000 X116.799 Y120.228 Z38.6
G1 F2400 X104.542 Y121.003 E471.01243
G1 F2400 X97.742 Y110.774 E471.42094
G1 F2400 X103.201 Y99.772 E471.82945
G1 F2400 X115.458 Y98.997 E472.23796
G1 F2400 X122.258 Y109.226 E472.64647
G1 F2400 X116.799 Y120.228 E473.05498
G0 F12000 X116.408 Y120.478 Z38.8
G1 F2400 X104.129 Y120.788 E473.46349
G1 F2400 X97.722 Y110.31 E473.872
G1 F2400 X103.592 Y99.522 E474.28051
G1 F2400 X115.871 Y99.212 E474.68902
G1 F2400 X122.278 Y109.69 E475.09753
G1 F2400 X116.408 Y120.478 E475.50604
G0 F12000 X116.006 Y120.713 Z39.0
G1 F2400 X103.725 Y120.558 E475.91455
G1 F2400 X97.719 Y109.845 E476.32306
G1 F2400 X103.994 Y99.287 E476.73157
G1 F2400 X116.275 Y99.442 E477.14008
G1 F2400 X122.281 Y110.155 E477.5486
G1 F2400 X116.006 Y120.713 E477.95711
G0 F12000 X115.597 Y120.933 Z39.2
G1 F2400 X103.33 Y120.313 E478.36562
G1 F2400 X97.733 Y109.38 E478.77413
G1 F2400 X104.403 Y99.067 E479.18264
G1 F2400 X116.67 Y99.687 E479.59115
G1 F2400 X122.267 Y110.62 E479.99966
G1 F2400 X115.597 Y120.933 E480.40817
G0 F12000 X115.179 Y121.137 Z39.4
G1 F2400 X102.945 Y120.054 E480.81668
G1 F2400 X97.766 Y108.917 E481.22519
G1 F2400 X104.821 Y98.863 E481.6337
G1 F2400 X117.055 Y99.946 E482.04221
G1 F2400 X122.234 Y111.083 E482.45072
G1 F2400 X115.179 Y121.137 E482.85923
G0 F12000 X114.754 Y121.325 Z39.6
G1 F2400 X102.569 Y119.779 E483.26774
G1 F2400 X97.815 Y108.454 E483.67625
G1 F2400 X105.246 Y98.675 E484.08476
G1 F2400 X117.431 Y100.221 E484.49327
G1 F2400 X122.185 Y111.546 E484.90178
G1 F2400 X114.754 Y121.325 E485.31029
G0 F12000 X114.322 Y121.497 Z39.8
G1 F2400 X102.204 Y119.491 E485.7188
G1 F2400 X97.883 Y107.994 E486.12731
G1 F2400 X105.678 Y98.503 E486.53582
G1 F2400 X117.796 Y100.509 E486.94433
G1 F2400 X122.117 Y112.006 E487.35284
G1 F2400 X114.322 Y121.497 E487.76135
G0 F12000 X113.884 Y121.652 Z40.0
G1 F2400 X101.851 Y119.189 E488.16986
G1 F2400 X97.967 Y107.537 E488.57837
G1 F2400 X106.116 Y98.348 E488.98688
G1 F2400 X118.149 Y100.811 E489.3954
G1 F2400 X122.033 Y112.463 E489.80391
G1 F2400 X113.884 Y121.652 E490.21242
G0 F12000 X113.44 Y121.791 Z40.2
G1 F2400 X101.509 Y118.875 E490.62093
G1 F2400 X98.069 Y107.084 E491.02944
G1 F2400 X106.56 Y98.209 E491.43795
G1 F2400 X118.491 Y101.125 E491.84646
G1 F2400 X121.931 Y112.916 E492.25497
G1 F2400 X113.44 Y121.791 E492.66348
G0 F12000 X112.991 Y121.912 Z40.4
G1 F2400 X101.179 Y118.547 E493.07199
G1 F2400 X98.188 Y106.634 E493.4805
G1 F2400 X107.009 Y98.088 E493.88901
G1 F2400 X118.821 Y101.453 E494.29752
G1 F2400 X121.812 Y113.366 E494.70603
G1 F2400 X112.991 Y121.912 E495.11454
G0 F12000 X112.538 Y122.017 Z40.6
G1 F2400 X100.862 Y118.207 E495.52305
G1 F2400 X98.324 Y106.19 E495.93156
G1 F2400 X107.462 Y97.983 E496.34007
G1 F2400 X119.138 Y101.793 E496.74858
G1 F2400 X121.676 Y113.81 E497.15709
G1 F2400 X112.538 Y122.017 E497.5656
G0 F12000 X112.082 Y122.105 Z40.8
G1 F2400 X100.558 Y117.855 E497.97411
G1 F2400 X98.476 Y105.751 E498.38262
G1 F2400 X107.918 Y97.895 E498.79113
G1 F2400 X119.442 Y102.145 E499.19964
G1 F2400 X121.524 Y114.249 E499.60815
G1 F2400 X112.082 Y122.105 E500.01666
G0 F12000 X111.622 Y122.175 Z41.0
G1 F2400 X100.268 Y117.492 E500.42517
G1 F2400 X98.645 Y105.318 E500.83368
G1 F2400 X108.378 Y97.825 E501.2422
G1 F2400 X119.732 Y102.508 E501.65071
G1 F2400 X121.355 Y114.682 E502.05922
G1 F2400 X111.622 Y122.175 E502.46773
G0 F12000 X111.16 Y122.227 Z41.2
G1 F2400 X99.991 Y117.119 E502.87624
G1 F2400 X98.831 Y104.891 E503.28475
G1 F2400 X108.84 Y97.773 E503.69326
G1 F2400 X120.009 Y102.881 E504.10177
G1 F2400 X121.169 Y115.109 E504.51028
G1 F2400 X111.16 Y122.227 E504.91879
G0 F12000 X110.697 Y122.262 Z41.4
G1 F2400 X99.729 Y116.735 E505.3273
G1 F2400 X99.032 Y104.472 E505.73581
G1 F2400 X109.303 Y97.738 E506.14432
G1 F2400 X120.271 Y103.265 E506.55283
G1 F2400 X120.968 Y115.528 E506.96134
G1 F2400 X110.697 Y122.262 E507.36985
G0 F12000 X110.232 Y122.28 Z41.6
G1 F2400 X99.481 Y116.341 E507.77836
G1 F2400 X99.249 Y104.061 E508.18687
G1 F2400 X109.768 Y97.72 E508.59538
G1 F2400 X120.519 Y103.659 E509.00389
G1 F2400 X120.751 Y115.939 E509.4124
G1 F2400 X110.232 Y122.28 E509.82091
G0 F12000 X109.768 Y122.28 Z41.8
G1 F2400 X99.249 Y115.939 E510.22942
G1 F2400 X99.481 Y103.659 E510.63793
G1 F2400 X110.232 Y97.72 E511.04644
G1 F2400 X120.751 Y104.061 E511.45495
G1 F2400 X120.519 Y116.341 E511.86346
G1 F2400 X109.768 Y122.28 E512.27197
G0 F12000 X109.303 Y122.262 Z42.0
G1 F2400 X99.032 Y115.528 E512.68048
G1 F2400 X99.729 Y103.265 E513.089
G1 F2400 X110.697 Y97.738 E513.49751
G1 F2400 X120.968 Y104.472 E513.90602
G1 F2400 X120.271 Y116.735 E514.31453
G1 F2400 X109.303 Y122.262 E514.72304
G0 F12000 X108.84 Y122.227 Z42.2
G1 F2400 X98.831 Y115.109 E515.13155
G1 F2400 X99.991 Y102.881 E515.54006
G1 F2400 X111.16 Y97.773 E515.94857
G1 F2400 X121.169 Y104.891 E516.35708
G1 F2400 X120.009 Y117.119 E516.76559
G1 F2400 X108.84 Y122.227 E517.1741
G0 F12000 X108.378 Y122.175 Z42.4
G1 F2400 X98.645 Y114.682 E517.58261
G1 F2400 X100.268 Y102.508 E517.99112
G1 F2400 X111.622 Y97.825 E518.39963
G1 F2400 X121.355 Y105.318 E518.80814
G1 F2400 X119.732 Y117.492 E519.21665
G1 F2400 X108.378 Y122.175 E519.62516
G0 F12000 X107.918 Y122.105 Z42.6
G1 F2400 X98.476 Y114.249 E520.03367
G1 F2400 X100.558 Y102.145 E520.44218
G1 F2400 X112.082 Y97.895 E520.85069
G1 F2400 X121.524 Y105.751 E521.2592
G1 F2400 X119.442 Y117.855 E521.66771
G1 F2400 X107.918 Y122.105 E522.07622
G0 F12000 X107.462 Y122.017 Z42.8
G1 F2400 X98.324 Y113.81 E522.48473
G1 F2400 X100.862 Y101.793 E522.89324
G1 F2400 X112.538 Y97.983 E523.30175
G1 F2400 X121.676 Y106.19 E523.71026
G1 F2400 X119.138 Y118.207 E524.11877
G1 F2400 X107.462 Y122.017 E524.52729
G0 F12000 X107.009 Y121.912 Z43.0
G1 F2400 X98.188 Y113.366 E524.9358
G1 F2400 X101.179 Y101.453 E525.34431
G1 F2400 X112.991 Y98.088 E525.75282
G1 F2400 X121.812 Y106.634 E526.16133
G1 F2400 X118.821 Y118.547 E526.56984
G1 F2400 X107.009 Y121.912 E526.97835
G0 F12000 X106.56 Y121.791 Z43.2
G1 F2400 X98.069 Y112.916 E527.38686
G1 F2400 X101.509 Y101.125 E527.79537
G1 F2400 X113.44 Y98.209 E528.20388
G1 F2400 X121.931 Y107.084 E528.61239
G1 F2400 X118.491 Y118.875 E529.0209
G1 F2400 X106.56 Y121.791 E529.42941
G0 F12000 X106.116 Y121.652 Z43.4
G1 F2400 X97.967 Y112.463 E529.83792
G1 F2400 X101.851 Y100.811 E530.24643
G1 F2400 X113.884 Y98.348 E530.65494
G1 F2400 X122.033 Y107.537 E531.06345
G1 F2400 X118.149 Y119.189 E531.47196
G1 F2400 X106.116 Y121.652 E531.88047
G0 F12000 X105.678 Y121.497 Z43.6
G1 F2400 X97.883 Y112.006 E532.28898
G1 F2400 X102.204 Y100.509 E532.69749
G1 F2400 X114.322 Y98.503 E533.106
G1 F2400 X122.117 Y107.994 E533.51451
G1 F2400 X117.796 Y119.491 E533.92302
G1 F2400 X105.678 Y121.497 E534.33153
G0 F12000 X105.246 Y121.325 Z43.8
G1 F2400 X97.815 Y111.546 E534.74004
G1 F2400 X102.569 Y100.221 E535.14855
G1 F2400 X114.754 Y98.675 E535.55706
G1 F2400 X122.185 Y108.454 E535.96557
G1 F2400 X117.431 Y119.779 E536.37409
G1 F2400 X105.246 Y121.325 E536.7826
G0 F12000 X104.821 Y121.137 Z44.0
G1 F2400 X97.766 Y111.083 E537.19111
G1 F2400 X102.945 Y99.946 E537.59962
G1 F2400 X115.179 Y98.863 E538.00813
G1 F2400 X122.234 Y108.917 E538.41664
G1 F2400 X117.055 Y120.054 E538.82515
G1 F2400 X104.821 Y121.137 E539.23366
G0 F12000 X104.403 Y120.933 Z44.2
G1 F2400 X97.733 Y110.62 E539.64217
G1 F2400 X103.33 Y99.687 E540.05068
G1 F2400 X115.597 Y99.067 E540.45919
G1 F2400 X122.267 Y109.38 E540.8677
G1 F2400 X116.67 Y120.313 E541.27621
G1 F2400 X104.403 Y120.933 E541.68472
G0 F12000 X103.994 Y120.713 Z44.4
G1 F2400 X97.719 Y110.155 E542.09323
G1 F2400 X103.725 Y99.442 E542.50174
G1 F2400 X116.006 Y99.287 E542.91025
G1 F2400 X122.281 Y109.845 E543.31876
G1 F2400 X116.275 Y120.558 E543.72727
G1 F2400 X103.994 Y120.713 E544.13578
G0 F12000 X103.592 Y120.478 Z44.6
G1 F2400 X97.722 Y109.69 E544.54429
G1 F2400 X104.129 Y99.212 E544.9528
G1 F2400 X116.408 Y99.522 E545.36131
G1 F2400 X122.278 Y110.31 E545.76982
G1 F2400 X115.871 Y120.788 E546.17833
G1 F2400 X103.592 Y120.478 E546.58684
G0 F12000 X103.201 Y120.228 Z44.8
G1 F2400 X97.742 Y109.226 E546.99535
G1 F2400 X104.542 Y98.997 E547.40386
G1 F2400 X116.799 Y99.772 E547.81237
G1 F2400 X122.258 Y110.774 E548.22089
G1 F2400 X115.458 Y121.003 E548.6294
G1 F2400 X103.201 Y120.228 E549.03791
G0 F12000 X102.818 Y119.964 Z45.0
G1 F2400 X97.78 Y108.762 E549.44642
G1 F2400 X104.962 Y98.799 E549.85493
G1 F2400 X117.182 Y100.036 E550.26344
G1 F2400 X122.22 Y111.238 E550.67195
G1 F2400 X115.038 Y121.201 E551.08046
G1 F2400 X102.818 Y119.964 E551.48897
G0 F12000 X102.446 Y119.685 Z45.2
G1 F2400 X97.836 Y108.301 E551.89748
G1 F2400 X105.389 Y98.616 E552.30599
G1 F2400 X117.554 Y100.315 E552.7145
G1 F2400 X122.164 Y111.699 E553.12301
G1 F2400 X114.611 Y121.384 E553.53152
G1 F2400 X102.446 Y119.685 E553.94003
G0 F12000 X102.085 Y119.392 Z45.4
G1 F2400 X97.909 Y107.842 E554.34854
G1 F2400 X105.823 Y98.45 E554.75705
G1 F2400 X117.915 Y100.608 E555.16556
G1 F2400 X122.091 Y112.158 E555.57407
G1 F2400 X114.177 Y121.55 E555.98258
G1 F2400 X102.085 Y119.392 E556.39109
G0 F12000 X101.736 Y119.086 Z45.6
G1 F2400 X97.999 Y107.386 E556.7996
G1 F2400 X106.264 Y98.3 E557.20811
G1 F2400 X118.264 Y100.914 E557.61662
G1 F2400 X122.001 Y112.614 E558.02513
G1 F2400 X113.736 Y121.7 E558.43364
G1 F2400 X101.736 Y119.086 E558.84215
G0 F12000 X101.398 Y118.767 Z45.8
G1 F2400 X98.107 Y106.934 E559.25066
G1 F2400 X106.709 Y98.167 E559.65917
G1 F2400 X118.602 Y101.233 E560.06769
G1 F2400 X121.893 Y113.066 E560.4762
G1 F2400 X113.291 Y121.833 E560.88471
G1 F2400 X101.398 Y118.767 E561.29322
G0 F12000 X101.072 Y118.435 Z46.0
G1 F2400 X98.231 Y106.486 E561.70173
G1 F2400 X107.159 Y98.051 E562.11024
G1 F2400 X118.928 Y101.565 E562.51875
G1 F2400 X121.769 Y113.514 E562.92726
G1 F2400 X112.841 Y121.949 E563.33577
G1 F2400 X101.072 Y118.435 E563.74428
G0 F12000 X100.759 Y118.091 Z46.2
G1 F2400 X98.373 Y106.043 E564.15279
G1 F2400 X107.613 Y97.952 E564.5613
G1 F2400 X119.241 Y101.909 E564.96981
G1 F2400 X121.627 Y113.957 E565.37832
G1 F2400 X112.387 Y122.048 E565.78683
G1 F2400 X100.759 Y118.091 E566.19534
G0 F12000 X100.46 Y117.736 Z46.4
G1 F2400 X98.531 Y105.606 E566.60385
G1 F2400 X108.071 Y97.87 E567.01236
G1 F2400 X119.54 Y102.264 E567.42087
G1 F2400 X121.469 Y114.394 E567.82938
G1 F2400 X111.929 Y122.13 E568.23789
G1 F2400 X100.46 Y117.736 E568.6464
G0 F12000 X100.174 Y117.369 Z46.6
G1 F2400 X98.705 Y105.175 E569.05491
G1 F2400 X108.531 Y97.806 E569.46342
G1 F2400 X119.826 Y102.631 E569.87193
G1 F2400 X121.295 Y114.825 E570.28044
G1 F2400 X111.469 Y122.194 E570.68895
G1 F2400 X100.174 Y117.369 E571.09746
G0 F12000 X99.902 Y116.992 Z46.8
G1 F2400 X98.896 Y104.751 E571.50597
G1 F2400 X108.994 Y97.759 E571.91449
G1 F2400 X120.098 Y103.008 E572.323
G1 F2400 X121.104 Y115.249 E572.73151
G1 F2400 X111.006 Y122.241 E573.14002
G1 F2400 X99.902 Y116.992 E573.54853
G0 F12000 X99.645 Y116.605 Z47.0
G1 F2400 X99.103 Y104.334 E573.95704
G1 F2400 X109.458 Y97.73 E574.36555
G1 F2400 X120.355 Y103.395 E574.77406
G1 F2400 X120.897 Y115.666 E575.18257
G1 F2400 X110.542 Y122.27 E575.59108
G1 F2400 X99.645 Y116.605 E575.99959
G0 F12000 X99.402 Y116.208 Z47.2
G1 F2400 X99.325 Y103.926 E576.4081
G1 F2400 X109.923 Y97.718 E576.81661
G1 F2400 X120.598 Y103.792 E577.22512
G1 F2400 X120.675 Y116.074 E577.63363
G1 F2400 X110.077 Y122.282 E578.04214
G1 F2400 X99.402 Y116.208 E578.45065
G0 F12000 X99.175 Y115.803 Z47.4
G1 F2400 X99.562 Y103.526 E578.85916
G1 F2400 X110.387 Y97.724 E579.26767
G1 F2400 X120.825 Y104.197 E579.67618
G1 F2400 X120.438 Y116.474 E580.08469
G1 F2400 X109.613 Y122.276 E580.4932
G1 F2400 X99.175 Y115.803 E580.90171
G0 F12000 X98.963 Y115.389 Z47.6
G1 F2400 X99.815 Y103.136 E581.31022
G1 F2400 X110.852 Y97.747 E581.71873
G1 F2400 X121.037 Y104.611 E582.12724
G1 F2400 X120.185 Y116.864 E582.53575
G1 F2400 X109.148 Y122.253 E582.94426
G1 F2400 X98.963 Y115.389 E583.35277
G0 F12000 X98.767 Y114.967 Z47.8
G1 F2400 X100.082 Y102.756 E583.76129
G1 F2400 X111.315 Y97.788 E584.1698
G1 F2400 X121.233 Y105.033 E584.57831
G1 F2400 X119.918 Y117.244 E584.98682
G1 F2400 X108.685 Y122.212 E585.39533
G1 F2400 X98.767 Y114.967 E585.80384
G0 F12000 X98.587 Y114.539 Z48.0
G1 F2400 X100.363 Y102.385 E586.21235
G1 F2400 X111.776 Y97.847 E586.62086
G1 F2400 X121.413 Y105.461 E587.02937
G1 F2400 X119.637 Y117.615 E587.43788
G1 F2400 X108.224 Y122.153 E587.84639
G1 F2400 X98.587 Y114.539 E588.2549
G0 F12000 X98.424 Y114.104 Z48.2
G1 F2400 X100.658 Y102.026 E588.66341
G1 F2400 X112.234 Y97.923 E589.07192
G1 F2400 X121.576 Y105.896 E589.48043
G1 F2400 X119.342 Y117.974 E589.88894
G1 F2400 X107.766 Y122.077 E590.29745
G1 F2400 X98.424 Y114.104 E590.70596
G0 F12000 X98.277 Y113.663 Z48.4
G1 F2400 X100.966 Y101.678 E591.11447
G1 F2400 X112.69 Y98.016 E591.52298
G1 F2400 X121.723 Y106.337 E591.93149
G1 F2400 X119.034 Y118.322 E592.34
G1 F2400 X107.31 Y121.984 E592.74851
G1 F2400 X98.277 Y113.663 E593.15702
G0 F12000 X98.146 Y113.216 Z48.6
G1 F2400 X101.288 Y101.343 E593.56553
G1 F2400 X113.141 Y98.126 E593.97404
G1 F2400 X121.854 Y106.784 E594.38255
G1 F2400 X118.712 Y118.657 E594.79106
G1 F2400 X106.859 Y121.874 E595.19957
G1 F2400 X98.146 Y113.216 E595.60809
G0 F12000 X98.033 Y112.765 Z48.8
G1 F2400 X101.622 Y101.019 E596.0166
G1 F2400 X113.589 Y98.254 E596.42511
G1 F2400 X121.967 Y107.235 E596.83362
G1 F2400 X118.378 Y118.981 E597.24213
G1 F2400 X106.411 Y121.746 E597.65064
G1 F2400 X98.033 Y112.765 E598.05915
G0 F12000 X97.937 Y112.311 Z49.0
G1 F2400 X101.967 Y100.708 E598.46766
G1 F2400 X114.03 Y98.398 E598.87617
G1 F2400 X122.063 Y107.689 E599.28468
G1 F2400 X118.033 Y119.292 E599.69319
G1 F2400 X105.97 Y121.602 E600.1017
G1 F2400 X97.937 Y112.311 E600.51021
G0 F12000 X97.858 Y111.852 Z49.2
G1 F2400 X102.325 Y100.411 E600.91872
G1 F2400 X114.467 Y98.559 E601.32723
G1 F2400 X122.142 Y108.148 E601.73574
G1 F2400 X117.675 Y119.589 E602.14425
G1 F2400 X105.533 Y121.441 E602.55276
G1 F2400 X97.858 Y111.852 E602.96127
G0 F12000 X97.797 Y111.392 Z49.4
G1 F2400 X102.693 Y100.128 E603.36978
G1 F2400 X114.896 Y98.736 E603.77829
G1 F2400 X122.203 Y108.608 E604.1868
G1 F2400 X117.307 Y119.872 E604.59531
G1 F2400 X105.104 Y121.264 E605.00382
G1 F2400 X97.797 Y111.392 E605.41233
G0 F12000 X97.753 Y110.929 Z49.6
G1 F2400 X103.072 Y99.858 E605.82084
G1 F2400 X115.319 Y98.929 E606.22935
G1 F2400 X122.247 Y109.071 E606.63786
G1 F2400 X116.928 Y120.142 E607.04638
G1 F2400 X104.681 Y121.071 E607.45489
G1 F2400 X97.753 Y110.929 E607.8634
G0 F12000 X97.727 Y110.465 Z49.8
G1 F2400 X103.461 Y99.603 E608.27191
G1 F2400 X115.734 Y99.138 E608.68042
G1 F2400 X122.273 Y109.535 E609.08893
G1 F2400 X116.539 Y120.397 E609.49744
G1 F2400 X104.266 Y120.862 E609.90595
G1 F2400 X97.727 Y110.465 E610.31446
G0 F12000 X97.718 Y110.0 Z50.0
G1 F2400 X103.859 Y99.363 E610.72297
G1 F2400 X116.141 Y99.363 E611.13148
G1 F2400 X122.282 Y110.0 E611.53999
G1 F2400 X116.141 Y120.637 E611.9485
G1 F2400 X103.859 Y120.637 E612.35701
G1 F2400 X97.718 Y110.0 E612.76552
G0 Z70.0
G28 X Y
M107
M140 S0
M104 S0
M84 X Y Z E
